public/cloud-icons/azure/deployment/azure-deployment-environment.svg

<?xml version="1.0" encoding="UTF-8" standalone="no"?>
<!-- Generated by Microsoft Visio, SVG Export Azure Deployment Environment.svg Page-1 -->

<svg
   xmlns:dc="http://purl.org/dc/elements/1.1/"
   xmlns:cc="http://creativecommons.org/ns#"
   xmlns:rdf="http://www.w3.org/1999/02/22-rdf-syntax-ns#"
   xmlns:svg="http://www.w3.org/2000/svg"
   xmlns="http://www.w3.org/2000/svg"
   xmlns:sodipodi="http://sodipodi.sourceforge.net/DTD/sodipodi-0.dtd"
   xmlns:inkscape="http://www.inkscape.org/namespaces/inkscape"
   width="56.689999"
   height="53.861275"
   viewBox="0 0 56.689997 53.861275"
   xml:space="preserve"
   class="st5"
   version="1.1"
   id="svg46"
   sodipodi:docname="Azure Deployment Environment.svg"
   style="font-size:12px;overflow:visible;color-interpolation-filters:sRGB;fill:none;fill-rule:evenodd;stroke-linecap:square;stroke-miterlimit:3"
   inkscape:version="0.92.5 (2060ec1f9f, 2020-04-08)"><metadata
   id="metadata50"><rdf:RDF><cc:Work
       rdf:about=""><dc:format>image/svg+xml</dc:format><dc:type
         rdf:resource="http://purl.org/dc/dcmitype/StillImage" /></cc:Work></rdf:RDF></metadata><sodipodi:namedview
   pagecolor="#ffffff"
   bordercolor="#666666"
   borderopacity="1"
   objecttolerance="10"
   gridtolerance="10"
   guidetolerance="10"
   inkscape:pageopacity="0"
   inkscape:pageshadow="2"
   inkscape:window-width="640"
   inkscape:window-height="480"
   id="namedview48"
   showgrid="false"
   inkscape:zoom="2.3346919"
   inkscape:cx="28.346451"
   inkscape:cy="16.522305"
   inkscape:window-x="0"
   inkscape:window-y="0"
   inkscape:window-maximized="0"
   inkscape:current-layer="svg46" />
	<style
   type="text/css"
   id="style2">
	<![CDATA[
		.st1 {fill:#4fc2b1;stroke:none;stroke-linecap:butt;stroke-width:13.2019}
		.st2 {fill:#5fe8c9;stroke:none;stroke-linecap:butt;stroke-width:13.2019}
		.st3 {fill:url(#grad0-10);stroke:none;stroke-linecap:butt;stroke-width:13.2019}
		.st4 {fill:#f2f2f2;stroke:none;stroke-linecap:butt;stroke-width:13.2019}
		.st5 {fill:none;fill-rule:evenodd;font-size:12px;overflow:visible;stroke-linecap:square;stroke-miterlimit:3}
	]]>
	</style>

	<defs
   id="Patterns_And_Gradients">
		<linearGradient
   id="grad0-10"
   x1="0"
   y1="75.898803"
   x2="44.62312"
   y2="75.898803"
   gradientTransform="scale(1.1922071,0.83878044)"
   gradientUnits="userSpaceOnUse">
			<stop
   offset="0"
   stop-color="#0078d4"
   stop-opacity="1"
   id="stop4" />
			<stop
   offset="0.16"
   stop-color="#1380da"
   stop-opacity="1"
   id="stop6" />
			<stop
   offset="0.53"
   stop-color="#3c91e5"
   stop-opacity="1"
   id="stop8" />
			<stop
   offset="0.82"
   stop-color="#559cec"
   stop-opacity="1"
   id="stop10" />
			<stop
   offset="1"
   stop-color="#5ea0ef"
   stop-opacity="1"
   id="stop12" />
		</linearGradient>
	</defs>
	<g
   id="g44"
   transform="translate(-13.2019,-13.203031)">
		<title
   id="title16">Page-1</title>
		<g
   id="group18640-1"
   transform="translate(13.2019,-34.0157)">
			<title
   id="title18">Azure Deployment Environment.18640</title>
			<g
   id="group18641-2">
				<title
   id="title20">layer1</title>
				<g
   id="shape18642-3"
   transform="translate(0,-3.1054)">
					<title
   id="title22">path8751</title>
					<path
   d="M 56.69,101.08 H 0 l 10.49,-9.81 a 1.83937,1.82084 0 0 1 1.26,-0.5 h 34.49 a 1.85197,1.83331 0 0 1 1.38,0.62 z"
   class="st1"
   id="path24"
   inkscape:connector-curvature="0"
   style="fill:#4fc2b1;stroke:none;stroke-width:13.20189953;stroke-linecap:butt" />
				</g>
				<g
   id="shape18643-5">
					<title
   id="title27">path8753</title>
					<path
   d="m 0,97.98 h 56.69 v 1.28 a 1.84567,1.82708 0 0 1 -1.84,1.82 h -53 A 1.84567,1.82708 0 0 1 0,99.26 Z"
   class="st2"
   id="path29"
   inkscape:connector-curvature="0"
   style="fill:#5fe8c9;stroke:none;stroke-width:13.20189953;stroke-linecap:butt" />
				</g>
				<g
   id="shape18644-7"
   transform="translate(1.70079,-16.4437)">
					<title
   id="title32">path8755</title>
					<path
   d="M 53.2,89.27 A 11.9055,11.7856 -180 0 0 42.83,77.92 15.0236,14.8723 -180 0 0 27.34,63.67 15.4646,15.3088 -180 0 0 12.6,73.62 14.2362,14.0928 -180 0 0 0,87.18 14.4882,14.3423 -180 0 0 15.06,101.08 H 41.23 A 12.0945,11.9727 -180 0 0 53.2,89.27 Z"
   class="st3"
   id="path34"
   inkscape:connector-curvature="0"
   style="fill:url(#grad0-10);stroke:none;stroke-width:13.20189953;stroke-linecap:butt" />
				</g>
				<g
   id="shape18645-11"
   transform="translate(19.9111,-16.4063)">
					<title
   id="title37">path8757</title>
					<path
   d="M 0.12,83.77 8.44,75.7 a 0.944882,0.935364 0 0 1 1.35433,0 L 17.88,83.77 a 0.409449,0.405324 0 0 1 -0.314966,0.717109 L 12.47,84.49 a 0.472441,0.467682 -180 0 0 -0.440941,0.436506 L 11.96,100.74 a 0.346457,0.342967 0 0 1 -0.346453,0.34296 L 6.14,101.08 A 0.346457,0.342967 0 0 1 5.793541,100.73704 L 5.85,84.93 A 0.440945,0.436503 -180 0 0 5.440553,84.493494 L 0.4,84.49 A 0.409449,0.405324 0 0 1 0.116542,83.772891 Z"
   class="st4"
   id="path39"
   inkscape:connector-curvature="0"
   style="fill:#f2f2f2;stroke:none;stroke-width:13.20189953;stroke-linecap:butt" />
				</g>
			</g>
		</g>
	</g>
</svg>

<svg xmlns="http://www.w3.org/2000/svg" xml:space="preserve" width="56.69" height="53.861" style="font-size:12px;overflow:visible;color-interpolation-filters:sRGB;fill-rule:evenodd;stroke-linecap:square;stroke-miterlimit:3" viewBox="0 0 56.69 53.861"><defs><linearGradient id="a" x1="0" x2="44.623" y1="75.899" y2="75.899" gradientTransform="scale(1.1922 .83878)" gradientUnits="userSpaceOnUse"><stop offset="0" stop-color="#0078d4"/><stop offset=".16" stop-color="#1380da"/><stop offset=".53" stop-color="#3c91e5"/><stop offset=".82" stop-color="#559cec"/><stop offset="1" stop-color="#5ea0ef"/></linearGradient></defs><g transform="translate(-13.202 -13.203)"><title>Page-1</title><g transform="translate(13.202 -34.016)"><title>Azure Deployment Environment.18640</title><title>layer1</title><g transform="translate(0 -3.105)"><title>path8751</title><path d="M56.69 101.08H0l10.49-9.81a1.84 1.82 0 0 1 1.26-.5h34.49a1.852 1.833 0 0 1 1.38.62z" style="fill:#4fc2b1;stroke:none;stroke-width:13.20189953;stroke-linecap:butt"/></g><title>path8753</title><path d="M0 97.98h56.69v1.28a1.846 1.827 0 0 1-1.84 1.82h-53A1.846 1.827 0 0 1 0 99.26Z" style="fill:#5fe8c9;stroke:none;stroke-width:13.20189953;stroke-linecap:butt"/><g transform="translate(1.7 -16.444)"><title>path8755</title><path d="M53.2 89.27a11.906 11.786-180 0 0-10.37-11.35 15.024 14.872-180 0 0-15.49-14.25 15.465 15.309-180 0 0-14.74 9.95A14.236 14.093-180 0 0 0 87.18a14.488 14.342-180 0 0 15.06 13.9h26.17A12.095 11.973-180 0 0 53.2 89.27" style="fill:url(#a);stroke:none;stroke-width:13.20189953;stroke-linecap:butt"/></g><g transform="translate(19.911 -16.406)"><title>path8757</title><path d="m.12 83.77 8.32-8.07a.945.935 0 0 1 1.354 0l8.086 8.07a.41.405 0 0 1-.315.717l-5.095.003a.472.468-180 0 0-.44.437l-.07 15.813a.346.343 0 0 1-.346.343l-5.474-.003a.346.343 0 0 1-.346-.343L5.85 84.93a.44.437-180 0 0-.41-.437L.4 84.49a.41.405 0 0 1-.283-.717Z" style="fill:#f2f2f2;stroke:none;stroke-width:13.20189953;stroke-linecap:butt"/></g></g></g></svg>
